svgs/duotone/hand-point-right.svg

<svg xmlns="http://www.w3.org/2000/svg" viewBox="0 0 512 512"><!-- Font Awesome Pro 6.0.0-alpha2 by @fontawesome - https://fontawesome.com License - https://fontawesome.com/license (Commercial License) --><defs><style>.fa-secondary{opacity:.4}</style></defs><path d="M272 160H480C497.672 160 512 145.688 512 128S497.672 96 480 96H271.193C271.492 98.66 272 101.26 272 104V160ZM202.969 355.826C196.047 345.602 192 333.275 192 320C192 314.234 193.08 308.762 194.51 303.447C157.354 300.594 128 269.869 128 232V160C128 151.163 135.163 144 144 144H144C152.837 144 160 151.163 160 160L160 229.724C160 245.239 171.289 272 200 272C222.094 272 240 254.094 240 232V104C240 81.909 222.091 64 200 64H136.594C103.469 64 72.031 80 52.469 106.812L26.016 143.219C9.107 166.489 0 194.516 0 223.281V312C0 387.111 60.889 448 136 448H168.879C163.381 438.553 160 427.717 160 416C160 388.066 178.014 364.559 202.969 355.826Z" class="fa-secondary"/><path d="M320 288H256C238.328 288 224 302.312 224 320S238.328 352 256 352H320C337.672 352 352 337.688 352 320S337.672 288 320 288ZM352 192H272V232C272 240.459 270.271 248.459 267.59 256H352C369.672 256 384 241.688 384 224S369.672 192 352 192ZM288 384H224C206.328 384 192 398.312 192 416S206.328 448 224 448H288C305.672 448 320 433.688 320 416S305.672 384 288 384Z" class="fa-primary"/></svg>

<svg xmlns="http://www.w3.org/2000/svg" viewBox="0 0 512 512"><!--! Font Awesome Pro 6.3.0 by @fontawesome - https://fontawesome.com License - https://fontawesome.com/license (Commercial License) Copyright 2023 Fonticons, Inc. --><defs><style>.fa-secondary{opacity:.4}</style></defs><path class="fa-primary" d="M320 288h-64c-17.67 0-32 14.31-32 32s14.33 32 32 32h64c17.67 0 32-14.31 32-32S337.7 288 320 288zM352 192h-80v40c0 8.459-1.729 16.46-4.41 24H352c17.67 0 32-14.31 32-32S369.7 192 352 192zM288 384H224c-17.67 0-32 14.31-32 32s14.33 32 32 32h64c17.67 0 32-14.31 32-32S305.7 384 288 384z"/><path class="fa-secondary" d="M272 160H480c17.67 0 32-14.31 32-32s-14.33-32-32-32h-208.8C271.5 98.66 272 101.3 272 104V160zM202.1 355.8C196 345.6 192 333.3 192 320c0-5.766 1.08-11.24 2.51-16.55C157.4 300.6 128 269.9 128 232V159.1C128 151.2 135.2 144 143.1 144S160 151.2 159.1 159.1l0 69.72C159.1 245.2 171.3 271.1 200 271.1C222.1 271.1 240 254.1 240 232v-128C240 81.91 222.1 64 200 64H136.6C103.5 64 72.03 80 52.47 106.8L26.02 143.2C9.107 166.5 0 194.5 0 223.3V312C0 387.1 60.89 448 136 448h32.88C163.4 438.6 160 427.7 160 416C160 388.1 178 364.6 202.1 355.8z"/></svg>
